X:1
T:Something's Gotta Give
T:Somethings gotta give
T:(from Daddy Long Legs)
T:Johnny Mercer
C:Johnny Mercer 1954
Z:All Rights Reserved
L:1/8
M:4/4
K:C
V:1 treble 
%%MIDI program 4
V:1
|:"Dm" A3 A-"F" A2"Dm7" A2- | A A3 A"G"A A2 |"Cmaj7" A4 G2 ^FG- | G8 |"Dm" F3 F-"F" F2"Dm7" F2- | %5
w: When an * ir|* re- sist- i- ble|force such as you||meets an * old|
 F F3"F" FF F2 |"D" F4"C" E2 ^DE- | E8 |"Dm" D3 D- D2 D2- | D D3"Dm7" D2 FA |"Am" c8- |"C" c8 | %12
w: * im- mov- a- ble|ob- ject like me||you can * bet|* as sure as you|live||
"Dm7" DDDD D2 DD | DD D2 DCCC |"C" C8- | C6"A7" z2 |"Dm" A3 A"F" A2"Dm7" A2- | A A3"G" AA A2 | %18
w: some- things got- ta give some- things|got- ta give some- things got- ta|give||when an * ir|* re- press- i- ble|
"C" A4 G2 ^FG- | G8 |"Dm" F3 F-"F" F2"Dm7" F2- | F F3"G" FF F2 |"D" F4"C" E2 ^DE- | E8 | %24
w: smile such as yours||warms an * old|* im- pla- ca- ble|heart such as mine||
"Dm" D3 D- D2 D2- | D D3 D2 FA |"Am" c8- |"C" c8 |"Dm7" D2 D2 D2 D2 | D2 D2 DCCC- |"C" C8- | %31
w: dont say * no|* be- cause I in-|sist||some- where some- how|some- ones gon- na be kissed||
 C4 E2 G2 |"Gm7" d8- | d2 _BB"C" BB B2 | _B4 ^F2 GA- |"Fmaj7" A8 |"Em" G3"G" G- G2"Em" G2- | %37
w: * so en-|garde|* who know s what the|fates have in store||from their * vast|
 G G3"A" G2 ^DE |"Dm" F8- | F4 ^G2 A2 |"Am7" e8- | e2 cc-"D" cc c2 |"D7" c4 ^G2 AB- |"Gmaj7" B8 | %44
w: * mys- te- ri- ous|sky?|* I'll try|hard|* ig- nor * ing those|lips I a- dore||
"Am" A3 A- A2 A2- | A A3"D" A2 Bc |"Dm7" d8- | d3 z z4 |"Dm" A3 A-"F" A2"Dm7" A2- | A A3"G" AA A2 | %50
w: but how * long|* can an- y- one|try?||fight fight * fight|* fight fight it with|
"C" A4 G2 ^FG- | G8 |"Dm" F3 z F-"F" F2"Dm7" F- | F F3"G" FF F2 |"D" F4"C" E2 ^DE- |"Cmaj7" E8 | %56
w: all of our might||chan- ces * are|* some heav- en- ly|star span- gled night||
"Dm" D3 D- D2"Dm7" D2- | D D3 D2 FA |"Am" c8- |"Am7" c8 |"Dm7" dddd d2 dd | dd d2 dccc |1"C" c8- | %63
w: we'll find * out|* as sure as we|live||some- things go- ta give some- things|got- ta give, some- things got- ta|give|
"A7" c3 z z4 :|2"C" c8- |"Dm7" c6"C" z2 |] %66
w: |||

